-----BEGIN PGP SIGNATURE-----
Version: BCPG v@RELEASE_NAME@

iQIzBAABCAAdFiEEhcujMkppvaTgRM2ok0xsNh1FXJYFAmfIoHIACgkQk0xsNh1F
XJbqIA//QiUnpTAA8fgGX3sQy4YgKQpODMJxWogZOUIBcXZHpuz3aLqdnd08INDD
M+0+sOQzApYlOzZFzbqwV32oS/Arlq+HTNIw0/rSoB9ACiyY/2lHkYrGOM4di0ab
nut4UDvg7LOs6h1iQwmNXRzsQa/IUEfPX7KlkHQnFrJ01sQW3IxU5oSRMpG5PMCC
2QjbGFjXEfLpE8r+f/MzqJcTQgo3y83ms839KL7ThzAb/sM9nsxf6bknV7102y9H
zoDkgT3CQ3gOpUCMR6xSRvOmpXy4OPQ/ezSCvRkC+dpgtk8zgiWHxO+ti15kymqv
gZiNPkv9QqmNwu+/+Ol/IL6m1YOG3jmT+5cPUKzoniDXsxeJDLhBA4xpMt3895sA
pRt5qIY5gGyqLTubHbmiTml830PX7KUVqKfhk+Ss8B9iF459qbSQwN8U5czuaMPk
Cpm6m8pCbuhOvpHZyJ1fK+CR7Xv1H/Q/Rc1hsp3OCLcT4pLwcqTEs0amPUu6NF5q
pbLzbwn3yurg4wPocG6hzh019spfHLFme3bQgUp4n2z71p0jbQIK3zGFjj60Ui+l
1jbb9GqNaNRPf3hJ2IXFHaz7xylM8dfF8XIgOb8jppkouxTtoDx7yh5+J8wmmy4M
x6g5wZNLL+xiHldNIwpe4zWgM6YXZLCM4G6xrjR/1pRVDpVxdTg=
=EpW7
-----END PGP SIGNATURE-----
