-----BEGIN PGP SIGNATURE-----
Version: BCPG v@RELEASE_NAME@

iQIzBAABCAAdFiEEhcujMkppvaTgRM2ok0xsNh1FXJYFAmc+z8UACgkQk0xsNh1F
XJYJRBAAhi2M4PsCl4lh4mwIZZpLa71o+xC3GyVFS8PuwrGQGB97J2Llj3hsictm
VFyu7J9VFKdvRPu81IdsccsZj8vGnTSDDAf4Bmgq+s+MjGPbBaWgPkz9zWV/qNe6
ZTFCS915zgzYAommgu1m05pnG5tHYZFLLgqBQlpgH8DxGGd8g6zJHrgcggfIFhHi
R0XA4/B+X34ptuSTlIODW2hBRxouVUeBhaox3Feji1cslZrRJ3Lu2ACBJhvR+YF9
0xbG9vZa2jvOoJ94A/uYRBM9mwo0ndHqIcmHgWO/lTC7gVU9jWJeWNrPaO47rN4Y
mbzEhS/OUSF0A5xVNGqfJx6ndMU7Q6x55N3v9jOZk+OBbi2u2OiMJeP/vWGFvI7/
9tb5MFvY5Tfa31VTzf1PmyUL7b+WiXPmIBL7kMG/63Kn5YuQsJ82mkz2P9/zv0x6
Rw0aU/mbjudD11uxXozEAWi7epGk7jngff1jT2BnaqjyQak+caV2+4nyI+vdZ75f
RgUSqDRNk8M6JxSrWMzCSuj7MFpQvK1PVOQtr37wU3hV3P1hibDaE6Xc5QzP3524
uKkhpV+S1dJ4SPgLyCUdn4LnawAa8sYOe+l0pUhHYHaP9Kh4pJpGW9bOLZCHCxQS
WQhzJN8v5T4ArvoEqxAOQkffv6If1P2xBdw19K9ugdHodL6sNCk=
=iBUh
-----END PGP SIGNATURE-----
