-----BEGIN PGP SIGNATURE-----
Version: BCPG v@RELEASE_NAME@

iQIzBAABCAAdFiEEhcujMkppvaTgRM2ok0xsNh1FXJYFAmdwzsIACgkQk0xsNh1F
XJad7RAAlaef4WR3NvQWOfzkHof+QgKCpz+Q+LS7ZS/5sCx1cmlbvSi72gRfuKfu
l0AAVEAvYvX7CLlFpwpyk9OY40l+ry/9sxCfdwjozf+XNqAqyuMROy/GfaJYiqZ8
2Hz7bqkY9tcZzJ4nvZbMzqreMLlR70Y1pSY95Z573wHg6xiJ5rgiC4VRZZOV/n3F
kLSQ09LGIJGrhlWDsJ9KmxPx8yqinsI6o1bn5rEKX7DjmuquySvW57XpM6yEToIj
fUB13vZnfwqYMjk5v4h0EIfbKsmJ9KYr42wlfzdpyUX4xaS7F7VmaJCq++3rgsd0
PbBGm6fluX1keV5l5Ah4txy0bW28vs2eZm8Z5OLqfBK4C/Lrv00zNs6nGda1hic9
XRYmCnOVr0WnNXyeHe5CLNlcYNUvx8qX+Ba5SdVpp0C4WJdP7/MTGZWeeYXZZavo
vaTRuBCL1Wp5Yc6J/aZFBryWzwb7g+Gsrmq7F0q4RJIlpE5LhYv6NLhilHyl2ECU
D2tjAr8Rjl0G5bRaqROxF4FU0JR8yMMYRbF58qdpHAhgImXyGDL63zu19zEs/oxf
625jjNdz06M/CmceAGdbPSolY513vv+GXNj9njwvL5SEQfLetLbWbWfe+AGxpRJ5
5hBEApFRobnEkf/L37xXtSiRGKvqRl5m2nyKxMr4NGlhe+WDW8Q=
=izoR
-----END PGP SIGNATURE-----
