-----BEGIN PGP SIGNATURE-----
Version: BCPG v@RELEASE_NAME@

iQIzBAABCAAdFiEEhcujMkppvaTgRM2ok0xsNh1FXJYFAmfIZgwACgkQk0xsNh1F
XJZNtg//VxC02R+5jhrSuQ5vRzktPhNryhbf5hssDX6Zg93IAQE6zOAOrhDM3QpA
ch32HznbFPC2RS2yhPCHht0u1bxB6OG9fB/lP1LCN9lnp/O55utPtC8+749OhNPE
VcQgrTDQ6roRTeIHielaVEgb5tejwyezKu6aBDTNSjXDLRCOYJRoiWfbnotQY2qM
IayH/DRN7bikJm9j/zk/qYg300L7QeufOXngaVnvaqVW3M1/alPw3wkeH8VBH866
JYR3XrLKqG0EaKaqXnGvvSpQ98CQQ02qFwqO2NTeUMHbhIIN1PaZ3rvOkBoTzOIJ
TcSJmQeLWEPCMPG95tAnQjl+igBAlqseCzUsMG4BZvDU+2VWXBfiIiiUOTHXxBy8
5bqB+qzc021NlrQXgD2CAzh5dh+L6vNdZ3arXwspDA8p4GNmBjvCG2TnubACwhjl
VXxTqBa2DqEMYJMntkRpurvLt7u28Hdk/4P4i92gDBWtEIffAC+o+eR/YDfy8CWh
+/Oe/9a293CdtYsyXpmPCrs3PyZTNY0Lf6Q65JTrl2GF1O0yruo1RRxeT4q4HpbF
sbofWu53RdTfg7MDLgZpEVUym6wrfKhPw875ZAG/ZEORYlCSEOm1EvVzUD4v78lX
aBzpFkFCgUmx9SxHdPgZ4DGVNkf99CZ1W6Haea0kfKTgLlxp+Fc=
=jN/x
-----END PGP SIGNATURE-----
