-----BEGIN PGP SIGNATURE-----
Version: BCPG v@RELEASE_NAME@

iQIzBAABCAAdFiEEhcujMkppvaTgRM2ok0xsNh1FXJYFAmdwzxsACgkQk0xsNh1F
XJaEAhAApBpfMxGUkg2LG5HrJiXV5ZST4eGfdAF1Exo6lCIG6Q4f9w7+6ex6rbve
GMMhHy1z8vRxWlQKvl9RVBLG697il2gPkGs6LbWk7gp7UDVJMKkF/HtFg8oNRTbs
wIKWbjCRNdRMC8TnC6DRdmezktD0Fr0/WEARntP9cK+W1ZeAZTeLvQp8qX8JMmWI
AdjzW+nl1/7+/fL4EK72paJ0WGPzpREbasTcZERyLhbCSZJ+vScX7lQEt9I+Oi+Q
IDFXdlfX/7/+tOVhENrTxamDmYuH0LXpMN/inutSeCm+TsJYwel3ZtdnzOnePqE8
SYEF+HD6tHpMSEFM8FR/GIqsHOrjArclOXBWTHH1EAfiHdmaDzv6JgPEsv2W6QiK
5dynVcZv1yxA5MVxOVfWzJOooetpe4W3ZoZzvAN6YhzS3x40ImyJpOx1lmaOcico
wwJp5MGL5iB/DvbnaHHqlAgxNxO9ue7vfRfoaofrIxDH+O9O3wnsF9kAYoADx1lN
IYe8X+/O8V+tNMoWS+VQOSV4M7SkOXykL/YI2NO96TeWaWzp0gTouRtvPu+pFbT4
/K47Lv23m8zfzOfxID+KxoSU2GRrqC0CzEaIcyEC9wRLqSZ+R12QGw0s3l4uLJVQ
wm4e5TSJ/0rVssD9BSsXrDSXboAWjkCNCnzP9YGG8i9GzcJ4PhU=
=u19W
-----END PGP SIGNATURE-----
