-----BEGIN PGP SIGNATURE-----
Version: BCPG v1.68

iQIzBAABCAAdFiEEhcujMkppvaTgRM2ok0xsNh1FXJYFAmZjrNEACgkQk0xsNh1F
XJYJpA//Y/EUn+SLBGOmgbW/o2ko43lQ65kXVEZ7a8XTx6SfG6HQ2R4qs6Sowsbd
Z9ch4e9KG6/z3TsyXi4AXKbgZySI/MHuk3yXdR7yol+j+FvaAcFiMdarf0kvXz1U
7UxyIXvtDYhAMSxRBV1YrBOSYT1Y+Ctc/APuYz5WXVCwMz0ktw5VKUrlNXPMFmsT
GlBPtvIMkUp6jAwaMcE8yKdwhVNHtA5YtQRhpd+b8KAkt+Ebj2WLc4h+Hwq5ZcFr
6IWUsj9yrC4AQt1bqCJPXJrcu6li1fp59yrnnPU64NaV8xZy6uTxYxsLT8QpX/Q0
aagA0Bcd7Nd/twhyK1SvPGGMGeazlW9LV+irbVGx3o3UK1wOG8G2E7HRVGuUnyFP
9K6eipKC4cRanKOU5FHgwKwo5PkMnVEUJK84eSD2HYZ1Pkfe28rc9CEsrCsW/Xvz
7hA84uEf88ClRtAlp+B5TF4B3gXcpP8ioeIgyF5g3hzxhf9foU2wgqdEA4MUkXLD
RrOo9W5GKgyRzjpMSTTWyzOq8zFJtgbdYmVZoqgkGnuk+cEvd0dC6nduGbsCAh7S
kG+40FXZVh34g6fZhHytsRU03iaeoRyFacDXKZALAP1wjf7KULq2vtG/K2JMQFpj
gdUNbfoHOxC4+izCLKsoLOM3xF1vvl2AgEAm238rwhS9WL9To70=
=49LL
-----END PGP SIGNATURE-----
