-----BEGIN PGP SIGNATURE-----
Version: BCPG v@RELEASE_NAME@

iQIzBAABCAAdFiEEhcujMkppvaTgRM2ok0xsNh1FXJYFAmamEyIACgkQk0xsNh1F
XJaMVA//QnTXUeOieAVsUTlldCZ9HK+385m/HxPmlFQbk1hTIkX/0k/DhxxzzKsX
dFomfkf4grDin6UQWB2baAOD6kfs6O48n/o3d2tlYTr328GwStw4wkh+RAN6oRbN
169FfwbfzpZ8+6zOz4/BTS6mIzj0YKJYu3cnSH0EEsaI2eEriQDkjg7VeZ5JOccA
veUDzQD31yet927iPa6XTlowN/9YXHHUwbfWB9M6GtvMBIYluKj3NxdI6KmpDKaP
dGL2VF72tNatqklLxPcHgE3h3oVqg2qhQVFSXeS9IesgL6i6sEzeH3b02GB69KlN
Xj+RO0ZPJLyf135o8BFVj3k2wvjRiLuWPPqFZJFpZiYQEKRJHXa6k+YYX4JCmmnJ
+noRA2HpvR3n+fvP2IjrauDeg8h77C7KJ8ZWPUw6ZJNPvCvGsr3UeEWxLkhyCwcF
Y1y1RBrcG8b+V0HYxFeuyHYtQCmXeFzwCyEdJ/OvJHhcgrEqtnqQpoguxW3iBS65
W01p9baD2inyhHbDAA5/3RZhAEvWNA5va5PHhx6u51EUWMdw9raA5P+iJ+VOQkmt
Hdq0toYrf8eQGZPCMyjK4/RN43TnPm355PAMAmmdwgVh4Ver0nFcFNEyJm9VEFC5
wIYhUSagfnT27DSKdOqeIFgehF4mq959xz9s01CWdbGURM6vCM0=
=lBn9
-----END PGP SIGNATURE-----
