-----BEGIN PGP SIGNATURE-----
Version: BCPG v@RELEASE_NAME@

iQIzBAABCAAdFiEEhcujMkppvaTgRM2ok0xsNh1FXJYFAmfIl9oACgkQk0xsNh1F
XJYpaw/8Djg5l4DP0shS+lVHU+/g+n0pPRHxQJVve7FPmHvJ3aORkZVrtrH8+Wu7
tIP917R/NRjCWAZ3T0Uu42/W/sL4uiR4Is6x0sQmQ1NcYtWleFzRKZKciMzf1biQ
D6LYHjgfiAWsSDpQ0HP+Gl61h6rMn2aaDrlkqvX4X4SskqR7p171w0o2Pv3kRLjB
3rAc6el/YB/dElEEUkp3OqXiajqvoz2uWtC0f/FjkASxha9VfLNYaI7P4GA2DQku
liCpg1l0Nojk12wzaS7a7GSAk/xuZ2bqWdal1EW4Ten9phRI5XZQ1GuPRgPn8CAm
uO9lWhvha0IIjIDRX0Cd0YBN7dt9axeihZad2IPmhSzYXb05vrm7oOEdLD2fni7x
Vl+2DVFiZWNaXwGCpeXPmIhKydxJCVx1+B6HW2bgQPEwYf7PVvoVAf8HTNtRM2U6
CLxlpQ1KZPlfpNRvDA6Roqp372i9VoLjO08o3QXSzNB8IMW/hAfTLMyD+PKqpsj0
um9X6FPi3zy+OG4dyVcez1OGig+A301IS9ptJenILH64MukKEz0fOc7lF7PGl/BH
VdKXje8NaUueZEQyF9Hct/ABTlCKsCjolmf5EWW3x29UNoQlO2O75fM863LQfKIJ
1gfX1pNhzXi71qKne8kBzpEVz5qjD3XEjSp2eYHjJT/Q/I8S6+w=
=wfAW
-----END PGP SIGNATURE-----
