-----BEGIN PGP SIGNATURE-----
Version: BCPG v@RELEASE_NAME@

iQIzBAABCAAdFiEEhcujMkppvaTgRM2ok0xsNh1FXJYFAmahrhoACgkQk0xsNh1F
XJY/hxAAhs647dK4s8UNynExPms2n3DVEXjb62Fp8mzdqC/nN9R3hFKgiEt4gQ8k
9gv7D+/UuAu1/xexsDH8z2/6LWK1NWTXERcsOt+dhXq3F0/zRN+4pC0hqq2sQ1ds
UhwGS7Rt9bU0+SnFVJGiJ8O46WcsEkI2QoAt0iSVGTbP2emmFF1KcWvm1fEv17P8
T2Zxpt4+3GI3wqsUd9zY+gP/SA9D+zS2UdOVHN56nYTkcqV0q+6j9GA6WN9j7XId
fRDMEPz3dkC3IbnlXVWfN9CF68gZcckOHaU091GByZ+qFOyxsaVUZV02jZOzti++
rFm2upGuQg2+ZGmAklD6LgRu9EeXpCkOVE6rjzb88o9zMLupC0l88Z/JWVN6OQtR
yy4DBnH4Z5N9fpCzW0WTvFSE4UoW6B77p+hV0ckJbjEsrNZpjVzkNKdLg5mQ4ckd
RwqluTYzvSJFhlYBBf8GYEO65HtD+Vhpo3Zo5vb7uUd49IIxhwQCU1h9K3WZx7SB
IJKbHS9OC+agYc883izSwyAbmc8+P5rrx1rQfJsb3t0crQ0TmvOBWT0bG5bj+TC3
ik325VM3DdR014OZMU34GFQ3D3/9n7ndZEW6goc11jo5oWxPi6jzKq5JIiEJdFSM
4GEnCQdiRaYIyrfj6JE9xFR6y/0BCq8Kn0n6IVK7Tr81CUv4lxk=
=MT9a
-----END PGP SIGNATURE-----
