-----BEGIN PGP SIGNATURE-----
Version: BCPG v@RELEASE_NAME@

iQIzBAABCAAdFiEEhcujMkppvaTgRM2ok0xsNh1FXJYFAmgS2bEACgkQk0xsNh1F
XJaorg/9EfjVbY3TZnAvsW30pRhL/iE2afNc8sFJ4AA/JQBiy8SWQzDGN6vzO4aP
Ww+AjDb2GHE9BAJqi3hAvXeZlcxY5PqBNoQZcQmWj0RxUCZl+Y48oR2hLWj9vuaK
u08BgjxY/RWH0I9yPXy563oW7qTqVaqYwTMs8L6bsMUXkZUzE13b9rCvANYVpmZ4
A3d2BS106rLDnqkO0iumGizJTGNPmSLF8MMfXRzmeeu3D9zARHxx7wlqt276V5Oc
SwHJq8DLqdq1DypHWt42mYjK01UWvDWCyzAAAO41+zzVcU1AM3hQUPDSrBMKhhqG
2mwaY1ol7t1CP5murFSmdXQKtOdVJZgKHsad8FDAuJvkcZH3J0BE3ZVgcB8YQicZ
KqTquvJJocl9Crx4HBVdcA5hgSdHRwaNyiFQ5MA4JrSfLyA9P1SXtvgpxBQrMKno
K63kb3QzZGoSK51Ikukez0WDO9p6bcXpmSKH08Qdwt7wubV2JQnvFlK8ZRAMJFh0
pPzbLlUO6YznSUhGgGfgKvyr0woGt7Ue4rmc1TKD+jXsGHQ8Xs3MYsRV3JO26BoA
RCB67967ZSeMoJbaVqJ4A31sBxa5XM3O+qKrYTaye1bR3coTUnVSBstlhM+HYYqc
JXS5sNettxxoNkCUe9YbQ93t5g+4bp5EwJLTy6ebL+c3hkRzAEw=
=+4sb
-----END PGP SIGNATURE-----
