-----BEGIN PGP SIGNATURE-----
Version: BCPG v@RELEASE_NAME@

iQIzBAABCAAdFiEEhcujMkppvaTgRM2ok0xsNh1FXJYFAmc+z80ACgkQk0xsNh1F
XJa5mQ//WrGueUqfLQO41Y1HFAute7r3R8aPa61Rztgr63bZzRvR/QSK/sy0aTl+
TLbX8cvwfw8w80t5Ou1V7NI8vr3NiiJontU/khgTXRC9vM5CYIBG5af1lYILEf5G
IdspfL7Qd5j/BOOQ6ozeBykzEVWElGDPT/7zdgjB27M28JtAofvSzJ2Hf+lG/vDm
PZLa7WPwhKuAglJqKN90Leq+msCSMWYCMBzZrVMZvdGrt7LxPmDVyRXOtNBEJkWr
Me8QpA8aORv4GtpeatJfkSAi5VW8/4NW5PKRhP6hZU9rXwhtzaT+UN/YoHYM3l1e
vp2jHIdZXKtSaT0dCFJ0ch28oj8jtZtMIRqS9NCuq6prULd/P4eCI9uP9HD+xw6d
H5UCfH8g4yzUq5bP+1FOiM9kb9bMU6rOLWxioBd9w3TSSfz6SVKOJ7AmhjmjBu2s
RiSGJFLXonRgBo6R02q/ytdXpeQsgl0pBEkN6KNqfKEwys+bGaO7B83W1nFvzVU1
gxRDdcvPV7Q05688lljvfn+PGP7jw+UYsei7dvkmMNgJyTdRCs8xSUSuq/+YvCLv
FEZe4i20bjQjK4JiIoNoEWGOPEWl71wubGsFj3jeXaQbx+VjG/tVFR/hkjvFWXx4
V7DzW9O9jYKJy2rh48eKSNTrC4HvgQNtfI4HFVgmceHOge2ydHU=
=9dUw
-----END PGP SIGNATURE-----
