-----BEGIN PGP SIGNATURE-----
Version: BCPG v@RELEASE_NAME@

iQIzBAABCAAdFiEEhcujMkppvaTgRM2ok0xsNh1FXJYFAmdwzrMACgkQk0xsNh1F
XJZbnQ//aa3Zdgd0l0T4A1vAM0XB9kxQimhJQgSj9NUoMDOLZjy+cbILeQvwpFmz
gRVvPU4YbdYt7kSQHWxWtMmV3+BVjruMHRA+ub8GQnX4C/QNc0o2JSELz4qKFJJt
DFbhtv7olZCZXEUZtX/myfyChs2IRIWi+VSYc/wBXHWoLsaWqaHFxbyi2avv8X5V
dhuukHF9aNLTeW4rPl0XDtPCSSIgS6x/HLUY3f4orqQ0YvHAmLCTRjHdhnvv4+bZ
kvmDgqJ1Yrm7WupWqeyjc77Xt/fLbA/CkhmCeeo+vNabs0yeEby9CKTuwcHqgKAq
ArUOcy9Xk1OUArKG5u9KgNJirJzmB5i7Z7SYKYrJeU0znZ648i/YUoHLJnDhU6SG
87HzjlpF9ckG2M0kK6wUzPPpY9NoXqYvbwbO2GxwzziFT3tEut3FWhl6T2h13Pvy
2IkeHw9xUpoE295a4wOPuvmOwQmpav8uO91FszvPTbEnHpYx6OiNR9P4gLN5+QeH
7CXh8BPCfBHKeA1x/vqP6eGliu1s8lOWe/72QaJsxTxhjhQmpzjfrnc2x3/9K4HK
K/y+oPcsMxAStawUJ0JmL8Wbf7464i4fXpmvsUJk2c8heVD19py6E6N4SVMhWyE3
DCiZwsGl5ovDdnHmNK+FWK/p2GEnfNW0GUhNc1UAUs8JDQ3ay0c=
=FnOy
-----END PGP SIGNATURE-----
