-----BEGIN PGP SIGNATURE-----
Version: BCPG v@RELEASE_NAME@

iQIzBAABCAAdFiEEhcujMkppvaTgRM2ok0xsNh1FXJYFAmc6yQgACgkQk0xsNh1F
XJYjjhAAkT8ijpA6+hUqWrgzOBssVaV/JISreKD4sDQMU6FPlQv7kX/S10HjS7Va
l7XYeiYkkH8mfm3/43Hxc8Jz1puSGE7DPhJjuUBxA1I9JLTtIwTMl7hLy22QLXFT
fe9SlISD1+ZROc51q17JW6uyhzGnFjzuqkzVNXwzGP6F8uXqWZl1taaAtuJKG4Hi
t1no1jTOBWdX6Swn7LvK5t2QLCimShvefOY9z1mRdK5zWekZ/L54p2ACMKniPpj3
ORcW6Mm5iiCqVtW1JZGdO6DIoodyVNfZcK4OFKebnCZGQVQIGY4SAl/RNE5a1Inv
dy3TKWL3AuTKl42nx/AtlXcAN+60vT2lMZV0E4fiOXZvFxXpmLJlgXe4nGuT35MC
j2x0MBefdeZqELAQsblXS6V/bRaYl721U5rFzXAXf5msi//taR+YJO2Vt4XmRul0
F74ZhA5cava0ddT3MCc+RR2t/4F5MROQm6vr0v8RwCwNs77iTHFKVSm1iZsObL3O
166QCfZVQVwpqrL1UglIWxe6lOrUlCTD49dKUFmcp23R49NOLg4tnEVF3n3W+2Ol
+mz5cYPwpmApOyemcB7r3ESMI4aukPalLaqDyVlwuciiClMAPUuebH1fRzgdlH2z
u5zqQaxsuxdiSOFG4zNZrAq5+YBoNng2BRuldCt/u/qZpWfi1Cc=
=3vmy
-----END PGP SIGNATURE-----
