-----BEGIN PGP SIGNATURE-----
Version: BCPG v@RELEASE_NAME@

iQIzBAABCAAdFiEEhcujMkppvaTgRM2ok0xsNh1FXJYFAmdn23kACgkQk0xsNh1F
XJb9JRAAmrSdhn9wKgACPZRxViN/yE90Ef9EKe/DHFLXR2vlpGpAZY8vzGXqQBnA
5gosujMtdUu8yvt3BatCELB/cMqmdFnCvO6mJzZswFl4oau0JX3fQcHFG+MLN8QD
+2hoqinUDkRndcUIV6UaAJrJGQollCmpxbkQR3kGV8dNm78/qbVyuxeXeI7yuwd0
hYdlsErT6Unyoox930uRvPWDVN+cuq4RdBiUhShoVbaGA21eGdACghCty9b7aJpG
2uaokvQdwXPMtMbN1zZ8Azz2unMljoyePp6pw4AGKq01meXHD13M09ljZiP4kQfA
VFcR+LYDviyHo1kSsHimsK1QvYgGBHshZ82+YoQLp7KoSWgTJWLfvOXhFOUMAUof
YG4p/32a6kvbCrn0Nadto4wsaG89KK26o7l4dDdcO1bcmvUJf0eWA+CyBk6xyiWI
ux03+8/72xlq0oxFKqb7+v2p1p0DObkq0lSeaUhw4kMak8U6T2/UTrhzoHsh+23L
mmvRd4hAGJzyHTQ6b6WDGGOXNFX6npEkUf9me5NOfHUV9up3Z9BJSOJDAYmujtAC
btiQ079PZdIHa9JuNljg3VRBWlF261zuX2EjLau41Jtd3OIpVoGeToxduDxcEe15
KOGRJLFq/g49CDkUw84onqTrhdWX1ENABiTWJ4MPdFweSW4ml04=
=dPpI
-----END PGP SIGNATURE-----
