-----BEGIN PGP SIGNATURE-----
Version: BCPG v@RELEASE_NAME@

iQIzBAABCAAdFiEEhcujMkppvaTgRM2ok0xsNh1FXJYFAmgPJSIACgkQk0xsNh1F
XJaxSA//SiSJboPElOWe3I5ClmxVPDsHfxJg4A4C4OAugrI472cKRBEvdZef/ejt
pZ555GfuCj5XzjiTuNVbqpFp8+IhNhv2YNmLJPxh4MEJd7FPYrKSQBKxeSg1M6q1
EipXIWPqNXoQgfrn7NNWZSDmoB9Zc8B/zVdIDTXUIOkwxvINNaiemZpO4X5vrZOJ
jSVhMC3AiIJKW55UA5eCph6HMbn/uxUB4AxZDfcOTL2Z+uEaN+jiq7DdXIL6K8sb
AwdSPkZnskZJRv4Gh3MfW75CbjIMgWP9Y74jI0B0iJq5d0Yb9+6vSbgDBXjUSem+
3U4CuT/uP2CC7/7y8CwHgKSwcjulKR60Q44Q+fK9g64nasnf2z+gHKTBggAAupc+
8OXMPBWxPkicAGqFjlpN4tZTVkZASKsFqF9Y9PBDJrwOCc1L1qw2M2Chlfdl1ETT
tVvHEbb1GXY5r0m6a56DCAcivKsBJBn82vm0ghRG58HWtxb5drQfHGANbf5hRpyF
LqWtgJF3MlkeFyJ8AoTZEkDyvxpmLtdOHimZiHB2XhRKwcKaHCcPksmDNrApj6OD
wmlQ5ldmSFIfk7p8cntLl9PjyNWcTWkJaKvbq/fcHN8PX5pjCb/kLFqATmo+DzcG
nSuVressT4Y8Nmv9qTvYIo3qJIn73kFnhMG7jaroBclsFlHWITc=
=6ftg
-----END PGP SIGNATURE-----
