-----BEGIN PGP SIGNATURE-----
Version: BCPG v@RELEASE_NAME@

iQIzBAABCAAdFiEEhcujMkppvaTgRM2ok0xsNh1FXJYFAmbby8sACgkQk0xsNh1F
XJYy+Q//Tz63TuFiOr7BNInM3srS8hw3TMILsh4YY9nuselXUcWFWzyYeAsAi38c
ld6AhriAErg1UsdIfFstUMdF210VF+DPata1yONGOTl1qW+PGXlxKRvPSK5/NDW9
dODcJ68HB8353+AYqMe/gix/SMuUB+E6f5byWOPBZl+0B2aTOy5KYFq1Ueiyrz8s
AuvFH4Gvf5W52yDdCTZ5a7G/IFfAnFdNcVHg41SZu/UWNqkLcYGl7IhwLHq1dNxX
V/DdrL1/KKrWv2BgP9GZEbTYwxKalBEe9ojBwE5jvNo1qyV+Ek+zs0CUsD41+pbt
SBTnNu0g0k2FxPmwU1INWf2hTJsDQ2OLXw44bSahnmXW3SRkbg9X0SbRW6b8D7e2
DBJuNfpy4n+Z7QLvsiuFzwMeR9jd7RBkZ3lOI+mkT+oEU0btoWblSSslWteqxXEo
O5EODAP86Dj5repvNONARfVUSPhj0i5kugf7zfMbLHuVk5ifJA8K6gayFhqxmqWJ
dctInVP6WYGA+6clq8gDCRggPdDE14UzdAyv6d7uWTAZt2aVjw5fOzgSd+5ji7H1
DLy9z4mudMsF/8eaOdSjRZnKf/ki+PtQgA7jMRS35swGi9ib5jgSNI8awMjAJY2G
+UU23M3fpfF9qGaGaypc/n69B+kwoFjOpQLGJJqMiPFT584j9ls=
=ljiF
-----END PGP SIGNATURE-----
