-----BEGIN PGP SIGNATURE-----
Version: BCPG v@RELEASE_NAME@

iQIzBAABCAAdFiEEhcujMkppvaTgRM2ok0xsNh1FXJYFAmfIoHgACgkQk0xsNh1F
XJan7g//T0HXDvDSJ1dSZtRNiIXWkCiuZlnGFr3Af4qQaQTENtrwOMzHeP3aG75U
5q8NTTMbcpLDdMeACMNnjLr1Z1FCOw0hM6E+xQ40LfDGLAw87mppO67/r+whseOL
msO/3KglbAeAeL8wkeWExgqCbV6Pk8kNUZm4KLlJTkprxpmBMs1ht/U2MJec5/Yx
2Qn4tfVfHJZUPGfr+f00NrqNeitvBWWDTAX2Ewrwx98uo/TthjTydYlUJaPEkfZg
fO1sIw+qgyD4a/P11vFpcEPWcBZv6v9ouB3OkDqhOHtDcbt9yBt6WAzytoR+ae3s
szhObWx2fkVY2TJ0jHmMDPvTjIWS0O3mgdW9ZY8ZQ3ZTm6VhQJRxuVgVI8CP9LNm
7Xyfn6sP3qVc1K8N4ir+pYpWhv8JLGGJCe2k2VveSMReT06ApZ1XmGwOMz/6YUqt
wkPsRFne/BqwzcN/Fd5NYc781egmcKwbOmW1EO3LEwuH+HDmDVAGcCRMTOKt1n7K
7E+3pQvOwlHNhJ/4R+OXE6y63UWgdJGJmsQxBB5Bg/ufZdlKGDxwNAsFgl2yqMD7
rMrtZ9oS3FOn4mu+4QBcDtaeewDclKVocz7nSYnolqmUaUo3tPbv9bAEbURBP+Nr
dpDWAexfkl8hfYha04/Xu5A/CKb0GPqhP2RUvIitYvAF7+X3/ws=
=RuHF
-----END PGP SIGNATURE-----
