-----BEGIN PGP SIGNATURE-----

iQIzBAABCAAdFiEEhcujMkppvaTgRM2ok0xsNh1FXJYFAmkzMdkACgkQk0xsNh1F
XJb55A//Z6alfKOv26IzLCkVBlj3wN4LzPVXfn/UvQcKZVZmpgcui8ZM6oC/IocY
lKZkXKbpDRoaqlsDeuqGkTLMOtBpRl/EKBsSqpVkvAEZMTNDQoETsCqwZg7JyXWF
ExIshcc/3nm+jBN9xU+JPQshs+auA6eU7GT8DK303ZXocNsOD1jQuYCMkbAm+vut
EIc3iKW7FhHfm5uITk1BZ6iSoBCFpfgUla3unRjAQr7tkim00cnLmjncdP2smGJV
eAHd336SDyRuJsHxpM+dIrHt3gk2UXk2IslDbx6dXPIH5e2xKwF605DF4KqPGJoL
7Rw2ptJOH+Xpn3fcp2AHKvzFs0qvHSRb+G+ODFnqOwRGngENhrDfpOr37c7X6Xe7
YDJFhfLOMVZRjirpPer6QdbTM4ngvOCHK+TUZUzrhDjIdsIOgy8yTTsac05/5UaP
8acPXJyL5lFwcdV5pT1bRcMPWRGDKnwq9BwNcLR6N2lpFqHavYwxO15NxDbi7lO2
ignRSNSj/zof/fMDv57MbpP63Xn728KZP42XKoAk96l55ZH/58Wp6Vv3pUN6tRf+
41yAr1pQq/clF7zVCvxN/tv9Sk1H9EfcBjeObwlkMzJkTri/VSkHs05b36PNyyIL
6RDD8SAzcPEHrah/rRFh5HY+7H1T/0oC3c/33oS6fNTHkGpgXmU=
=FrSM
-----END PGP SIGNATURE-----
