-----BEGIN PGP SIGNATURE-----
Version: BCPG v@RELEASE_NAME@

iQIzBAABCAAdFiEEhcujMkppvaTgRM2ok0xsNh1FXJYFAmgPEO0ACgkQk0xsNh1F
XJYedQ/+OTynW8PV26coHEldk67VUak4qcpEdbIumvV40LpHW0WDwfG+PlN98p39
UusTeZAtUZXZEO06bNsupFyEx3woO0nuAanWzHAXPMLLQqpkbMD0Zr4aZB0B3nGm
UyQ+GLa4hgT1r2XYjZ12GPBq2ZYmJFtO8Q0WDG5Fofw6FNK73BS9TWglSkUBPIWu
6n258ZzI5EfTwiUS916YFU2WL6n3G7SOf/ncy7IKyUhI3y9G0kujq8Jb16+Qczby
gk82v46H+dWcYKhrHayhvY6Rmv4F3V6qfMA1JbGR9CL7MHDAG1sPVIJaOTiys0e7
xYpvejgm5dlwvW+iK4+wXebpMTWPEHixL/irUw8p0y5tjJ3Bp18sXN7WlwWNEEj+
dsUBClTbNpZdLsZKEk/Yb9Xh+8i308uOBevOVOuAiXfz2FVldgf/nJsW0+23vQ+j
MYgF0OWn3lR+yYgsXfaASIb9jEgjd/TwvIAVZCukpq7aPaK5d0vvZmvSn/JRA0j5
41nQQLv7Kq/6zoFnm+g8uThG/ulyKMLfWr3m9fM+0VW4WxWnh1DBechujCwFoQF6
Y1V1/niuT1SwImuFxG6u0RuxALCVJH5BXa06ovfmngjNEemRlOgnzAqib4PhLnxE
Hzp0i8K7UoUEQzzSKNV0ZXAdlnRKF5V2JIstEa/W2INdwBgsJls=
=dDr/
-----END PGP SIGNATURE-----
