-----BEGIN PGP SIGNATURE-----
Version: BCPG v@RELEASE_NAME@

iQIzBAABCAAdFiEEhcujMkppvaTgRM2ok0xsNh1FXJYFAmh8BWsACgkQk0xsNh1F
XJYHEBAAjzAW8yjDT7tjceQeJawtfU5euiGpRFAewgqPZ2PdTwpKTHCUmuE3BExb
xwSgbU+FxpMtrSAqW5R0VY8rQ9PSc5uWpaIscD4gtHMq1qVTQ+hXrSBGV/O/4dnI
wslh0W3W+bjOXMJEqAUac9DzVdwLvxBNRzZ/E4YNtW15UUd3gIEehfDHA40AITou
XmuxmXTMWMjXmKCC2SdwuTaLXoKtO+XT+5TIHY1gIvsJypMctyPy7dZ+1DxWHuS+
cCu3vS4V7cn+UNGDkzcsf/imjAH/dX4LCruo3dOW9lUiNFqI5bvjUMKaz/I6sV3F
xJMBC4u4Mex47fD6tsCGuXdRIfEfwB6rlX4kLFhHW4DpFBO1+ErZKPQlPiW8tZs8
x5zOs78MV0OIf7c7QpxQaoHH7a/he11T3dq6mwRkzhxDqNX+lHvKHcUqPMQz3LkI
FkHph63c+U8NHyM/pUGKeacuuExWkThxyp1XJVhpr+PSB0nJMbT/v7V8G8FkCuzR
mqvEfluCl+YUJ8DhpBWE8+3QwREXY1PrPcE8Y6aYPko3a9Eb3GvKSPG129Z4qr//
sz7o6kWrmY4iA/NRSkbEMjrdmrDnHtQvU6l2SdJKqq5qZUy5z1qLtB4NTciNgZuI
YDg25aW84KWBlU3sIe7NOnuHgxMk7/mtrgh9/3eFn0CBl6wyfZ8=
=WY+8
-----END PGP SIGNATURE-----
