-----BEGIN PGP SIGNATURE-----
Version: BCPG v@RELEASE_NAME@

iQIzBAABCAAdFiEEhcujMkppvaTgRM2ok0xsNh1FXJYFAmbby78ACgkQk0xsNh1F
XJYSoQ//WWQI35ySXI7XvJT9ZEllIJXxy79th5CGl4Lbg15mDwwCT6xtAoegFyRD
PWxCujE3batFFruE9YGdipxBzTljiXboPyy+NJp5awCiBTI+G/hRhll3DPUGjpBd
idXw2aX/Hl9yhfTlwKwvtYMgimsTpEQLM84lm82DMb8CgoR2fSBgmR/+fTU0tEyc
DyHJ1jdpq/PtWyqauypkwmwsMlozR+DTaxteAIYjuaQ2USyZfEcOlZoDlgU8L1AN
pviO5MqK55J0kTkUVJ7s+JlpLQutDEF3YPrD2gGwiql+Aw11yisqLivO5QtdLRv1
1BSYOWOEyGX/Z5z3HNKNkx2Ak16xJeYtEvd7IG47ae2E+I7rraNNVXYlWZhv/Skg
A8kpK7T7wTF70PjjWyIMzxvGcjv6aCGSRXOFxAwwKTF+K1Ts6e5muZSXPmKknJ1b
hE3QTRDjxQFDHtRlLWqs8f2/sLpAJUFAYGpJbcqKW9Xbr47pEjOJUyy5XtJBtnXl
6mDnsEmhJ+av+8dHzT1VdRbYq2UX4zKYlKvmHdLXIuugLmZF0v2+fp2J+IuMT+FZ
AmvAfeiUP+uk13YHSvprmdjsqln2wwUY/9TdsLgpkkOGPbCrp8bM3x/gdQYr0cBO
u/KYkTK+pF6AEnFa2pHjxh7+7nBcqsiwPg+OAsGmpasBVCBPWQw=
=+lbL
-----END PGP SIGNATURE-----
