-----BEGIN PGP SIGNATURE-----
Version: BCPG v@RELEASE_NAME@

iQIzBAABCAAdFiEEhcujMkppvaTgRM2ok0xsNh1FXJYFAmc6yPwACgkQk0xsNh1F
XJaSSQ/+IJYH2J+qbgY1yieY8ncIpAZGQYoXc74Oxv6C9fywj4ukR0Vsdr+TIZyB
Ci0COeDw9IifNY5LIyOBILpuTD6zkyYooWYuYKD4WqvW0tBBavnOevF09SXrKnVB
nr9ZQX84dVyTJf+LXxBC4Y5cyVYlJy4rTyXDVjcIhZVrD0lQhqLVpS1ZykgLfqnY
tjoq3EBOufC37T8KorIUJyBmZf5pxHW/MEPW6vYcv7ukgSYKr9+WsNKGLANFuqM6
TOH4T/hMAfayY6JvlRe1Xna8BsXIjR88zOsRWSBMMRwsMhEks0Qv0o74UuIWNUpL
3p3WposkFNp8tVbFBJOgMO0WazeepP/84a3uh9+lSBhJU+OU+I8S5iI97lTWamHa
wo2mLvhc5QmexQv0k6n3nICQRmYwSlLkJgWNgHx4F418oT4UsHUB9tK5P3dx+tO4
+hlcWk0aR4i5Hf2U4kaIeCo/E1BILT1krWJROzKi8Wj10cvAvqT/QxAyu1UpXGvi
IzGz2EYPVnI6yzxE29yzAVu62vsHSZ26KxEAx+vEF1Qpf8kffwzD0ndfV4kfmXPM
XB2bGL6MP5GJpacVSj7QNL+EofKcBo/IZ/UrzvbcS9ULzuT0lbld1hwSqD5otrLV
hu3NKbPKcpClOKk3Rx6pD9s/dY+rfeN5ytvbRPzcBmaRCCETEEw=
=F+MX
-----END PGP SIGNATURE-----
