-----BEGIN PGP SIGNATURE-----
Version: BCPG v1.68

iQIzBAABCAAdFiEEhcujMkppvaTgRM2ok0xsNh1FXJYFAmZjrIUACgkQk0xsNh1F
XJbJLQ//eDu3NIOkriY4FtV3YI2t4ml2MluZzYhWZ4TlCX2aKrlN1JBcp1cJKBm7
aAm0+v3NTZaAHX0Ea1A8ZiD5BXKy6SE2SQalQUlX/Hh2+bWlJ3JPQ7Qa5Hv1mlT2
vOHQTrHpCsKgGhBpseTFmKQIYQD1FAzQe2NLh2p5HhVGpLalzwe0yxGe+khzyP/j
iIrMmsJmKwzpcmcyuB3DFym5DoLTUuTnCrAn9oPJgfXKUYQB1d4rqIej2KvX3lTH
z9X5DU8wPK3TIMrysCoLXkY/bwsmvW4LUrB1nwdUe+UOZ224vPEjrg6yddnSBK3O
WttWiw2aXpMCHhAtw0qxnGcu61p0n8pJF5y3jsK6JGdNoogl8gD5Hg4C3svarN5l
7lgyo8rAx8dPCkwtA5hRFdZf4JWki5Itc4QFz3mSYb99Wev/mlLVS2/peR1dCZxc
AJapRN1uGfvEwswegtZy99jI/GrAkBfd6ThRb12+efJoROgTInqArCK/ypmO57w3
T3No+YlkJJurbCm6CxKS+O5zzZCZ3kEljgJI6rc1oMXDoLnDKzax+nYl29yf9gSb
Wm0eGK7RIUCsv4aBDlt05io7vvyfxnv+yNGa9DXB6+MYHIP5YB9v8EfIg4tqSZmo
2zOZikxpN/8ECAHVoXH8F4yyBURnbP1oir6LMWYC8aAK8Qm0+po=
=Qd2A
-----END PGP SIGNATURE-----
