-----BEGIN PGP SIGNATURE-----
Version: BCPG v1.68

iQIzBAABCAAdFiEEhcujMkppvaTgRM2ok0xsNh1FXJYFAmYZLscACgkQk0xsNh1F
XJaZWg/+IqUcE13gHMxrKQU3y9aCoBFJobeN5UMer7C346oPQ42KgMgm/yXmGWKc
3u1CXI7+FIUS3+IHlTWa/x8jkko5UONdEQDdKi+dYJDW7I4/ig4fRLoE/coA33JO
3JYTx+EyRTaUn8htLOqwswydWHvfjKKNNeKb8pebmBLERx0DEw3Pr56fnsvoPcsb
j1a3+PPpY1VjwjBhB8bPcdbpj5q0qLCDDnYxPMqm20o7LdDMkbBPgbnr2IqpXLvU
TVTRz+6Sc/QNqdRgIrHxvjBi0hdwWLjLZWreErwRoMGzjmz3ZU2BBCgpk2Tu7BXL
n7YDDVvAZVf6OtTGWwR56p5SPDwAbMMIePa78KpFT6jD3xxRQsZJQZF4YBtyYp8G
NIGWYAAJNQpD0+tQ0wZQVgSFw29nmh7WlMri+8n3OiRmEXwBaj6Btx05nuHl61a8
Y+Lxd8/DWB4tCqWFRrEfxqmGCYQCyqB3PgQTnq1Larypp3Pc1UnuAyZRkAL1r5zI
39G+lxjay9nJ7FKhcrd6VnVB2AJlyCMaAFnjGmPQoJTuPetZzQ3ruJQncu1RPHVx
6ehzVHY1nzvwtKtd5/CG0XsENNSciuj2rjmLukAMppwXH/y/3a7TUJG/4frkjLEW
6ATEK/WhRyeCV+sz0gAqw4NEAMdYalWx0HAYo9++5zkxPG8zEcQ=
=6AbX
-----END PGP SIGNATURE-----
