-----BEGIN PGP SIGNATURE-----
Version: BCPG v@RELEASE_NAME@

iQIzBAABCAAdFiEEhcujMkppvaTgRM2ok0xsNh1FXJYFAmgPJR4ACgkQk0xsNh1F
XJY/uA//Wujdtp2x0oVp5iv6jauMa2Tm/Cd7Hmz6nuuFB5kHcoV+do6uGMhFtnsY
AzpAnVFnt7W1/gxxb31jK0zSbX1FauaGP559KjiVp8HTqxKf1rfUYcwrO/xvjwT5
3K2oyP/csFknECytG1BCmsAPDu4gsVsxb46zvsde4IOEggxUWeAlbjXCN9aJZYwm
J1gstXc0Tnaxs3b4urpy4YNqB8/3JSmpQNfPyMly8EyHxo4EH39UfNajh9hKzNmD
nzOs411QMU9nuyBxPM9rj2STcoCUG0VFh8XzqkTmeI0xJYilSSeEhb8XUqwR7Fm3
jm9Wg80HS/sOMYBHPG1SJeZC94hydjYkh+9Uv05oIYcT+zFDwi9S5KzvzO1DpIsB
W/ePcP/rcs3MAK413MVzwCGgBPa7hq9acwUxv/vwEIbBhqpCkuvlR9TE7cQnhSHR
/kkCAglo+genIO2dCZWCQ4CrXAtAPMIfC4aa3sYnI2zPfHAIuE4LTKu2hooOSSBt
/u6k9A/GI5YtQTl0/cffAfHQJStMfOb1X5ecBZx5SnAyX6b9vA5CN4tV+t1+Lob8
PqowFzMRznbt5EmMzrysoV+Eh+WCVClEoC6T+JbsRIxaIGDyjZmUe7zFix1nSnTM
ypsnla0VrbklEvVvh1hNy2XVoxZrYrwSiXbZabfxtdkWPLnhugk=
=901s
-----END PGP SIGNATURE-----
