-----BEGIN PGP SIGNATURE-----
Version: BCPG v@RELEASE_NAME@

iQIzBAABCAAdFiEEhcujMkppvaTgRM2ok0xsNh1FXJYFAmdwzskACgkQk0xsNh1F
XJYyiRAAmPgTpLFBZ/JdYdRXSw7N7H1sAUhO8cXHfxF94RbTFMckJKK9eed/O2Xw
g9F95/XlZMYSI1OjyrVx0T70urUii4BAtJaJBfQcp2V53rGinU/64e4TX6PvARYO
xsKkBAOoPyM4s5sk89Lk08Slsw2CcUmcyh90wG5msMhXRrn8pQoiqJ0qLcdtBDa1
mUsCqseVnjFpMCDNjhDFLYcN+dIKTUom0Ir/5ZIvogKSTIndV7OMKNwPof9Q1Z7a
YwKgiIlX75Y3/Y/zuPyxsFDibIO+Xt0xEmVcpTpsEnnIPcnl02aiAuQJrKTfV1ZI
RRsPoVYIAqC3ESDOwdeTVQEUlOO51O1BiqliV92uvd9qrNeYA1Fv0P2RyOqvR4Xo
WNAF9N5x1efBqjL/PWXiXogzzfc4684g2P72Iikw0YKTnuBXnueqIyN4g/HFz38x
rnBUIqeNUbxigFKmuf3rCO3amGKwGFnTd3erkoUL+QLqp/4wUqM5qR+ngRaCoIqv
xFDq9SmpHTrrrpR9vWAfqc3lJZb7GGBFy1dn9ppySXaWC0tzBe3XpmZCg6mm5QZV
UfTRRZK0eKVnh4cOO/rtk7SdIxMrm3q54Yoae9IH6Dl5NgwksMP+L0r2wv1jeiQC
0i3PQGykrx6wB3P2GWc9neaflSIdrAoGJA0lCM7C3nXJjgtg7qM=
=577f
-----END PGP SIGNATURE-----
