-----BEGIN PGP SIGNATURE-----
Version: BCPG v@RELEASE_NAME@

iQIzBAABCAAdFiEEhcujMkppvaTgRM2ok0xsNh1FXJYFAmdn25cACgkQk0xsNh1F
XJb99w//VpR8zt+7nsjpqMl6o3Y0OAhnxt8hlKva5vUKaODM5yoakg5ST11f81Sc
Z7C2Hd1DErsxefKNLIzGanZ/uDtYvvJ6Tw23nY6QNsv9ZaA7omXMG7Fm49McWhqo
nZMtZV6auBdJzVW8H5fOCDle2UZ1QAn5N5+ngD77uE/xQGb7mmPSw4VrRsTs1seQ
eZgDV9uP4KCu7C6r7GmKpORbObv68YdJDVxAzWAW8leRGy16fZeJ+3biN9Cocz6O
1Dnf7UcxPDZxHg3CRl5nuyG2n4lucdelWoGdZ2MqNMCbzp37NQYXq/McXPMQIUey
3W+sSJwY0c0TCegMVxsuzZVc1OSsz1GQdKi92USNhdUZevDKGLJOYFrBY3iWRrlW
aCwIFGfFiwReQ/vp59mEqlYYX2xiilzSPWvFBtClNZ7nCY3RZIGTquaYkgtlUzmm
q3XDc5Y6bF6VTm4BoSemPgR6MlEhfVVCX0J3IN/PyGkJfZ11vOTgQ3mnQHT+VyZl
JCckS5QQTNnV6vS+aMyHd2DdN8eCphY/nU5tSIZ9LU6susz35XL6U74XA7oYv3oe
EihfeKeYEBnluMcI4vl/pHJEoCB/QJlNUKsNEIbFn5a2HFqUIVVfW43JwH8hmBRL
kp9CbTWF5c6PZxnEmi5SPZ/So90QTGa+KQ2F35gS5E9E1gZ9kc4=
=dkAq
-----END PGP SIGNATURE-----
