-----BEGIN PGP SIGNATURE-----
Version: BCPG v@RELEASE_NAME@

iQIzBAABCAAdFiEEhcujMkppvaTgRM2ok0xsNh1FXJYFAmfIoFIACgkQk0xsNh1F
XJY1mQ//aDfFioMGW5zulpPZGvxK9FiTAcWTEHLfCZp33SFVHw20E9Ww5q8hpQOk
YXMQd9aeXVbwwk7SF1fbCYXdOHp4cNNtv8sULUFZ99E7hx/uBD7pIrDF9kAggYwV
kdAp/7vBeGeP8TXZlgPJal3UJ55ff7pAqohsz9dQvd+rJRQYw/zLnLM1darzDox+
s/b7AkhKQaIxstiR1TogtDWg3FdOThDcMNfLKoj2u6l+70SlMAvNfj2qnzLTMszw
60NFielHNVgK3M2ih6lxpM62mab3BSKJOion3ByoOHwMGz7HmOQ0FY3k89ggo6JT
/3RVGl+BxC/3XFJA91C0zG1pZkSl1QI9rYtrJBE5yvk36c6X5SnWi3hdpvZ7Vvm3
fbIRPoejMEv6c1qvtcrMp6f8r6FlMFvkObjZETfsHC8IDCBohG7VKaKBIKcXRG+o
wDmGlT1d2a+TcZ92jwnoAT/DqxtdrkP4Appl+uHirLHTsO5SD6aPSI0s2rK5vGpV
is3xEJC38RA7I26GAt5BHa2ZfpJI/4S0tcuP1Ikhhf2lWPe5r+ArJmMHS3Sy/Aat
J/6LepvXpdzsMfWS4HRl7NSr1MEJkR374nbBuZHY+ZpCVsi+OPrj1g+xzdQhoFBB
DjDuV+EA9Kghmd7+rjeQNsXuOEeiMRMetxEh0H5TCqjhfm2bFjY=
=/RIs
-----END PGP SIGNATURE-----
