-----BEGIN PGP SIGNATURE-----
Version: BCPG v@RELEASE_NAME@

iQIzBAABCAAdFiEEhcujMkppvaTgRM2ok0xsNh1FXJYFAmdrlxkACgkQk0xsNh1F
XJarxRAAjZqWvcKR98cdc+MUxHO8qbnvehgRQV9trhBo2bu8YjJlbnGCwZFDiKtu
0/YlZin4LpDlKl2PcB8VZaZeQUDu5wUak8rBCTG/1mzwePp6n2s1l9vH5DAg8PZ7
T+iosKueLA3dowXzchIqiFbWaDWCKexFHJVjlQinC8yuKD2xF8h3jHxm1bLpdyOb
sEHK9hIB9tF1spgwto3adiKT+g7snbKLZJ9weyh675cPC9dlKJyVUMXgVI82iN1M
gaNCxPSPRgaBDuLH2Pe3KKdrBeWe/88gSb11WLTvhfC/PNg/PNOSZQZj2MwOpOxd
JNpsrVWAZeEN6r6w7dud30SSeItcvgl0AFZWIu+TmpvXgCcE2mTQra2ugIYNAjoT
w/G4cQxsCiofLMkzPFPQjhe239F7RrGod7iDk/gH+B4DWZ3F+uRSpd1u2d/z3/7L
DO+sBkibO+zM7pPjrXTB+Eal7v7QKGXaFHSs5YT+IsUKr9hBtxWvXcS7PQ+i/Jxv
K3rr0qJoJGBjTYmDkA/knq1F4UbTnhxOKlJVja8MwuQy0w86BIJH5XoVnd2De7eX
8mdX3wGe+7EwjSs9m5GLdRCWnXYrkOo7JnAWWYYH4HP4v7r67e+rPe4fQSJdAy5M
ke0R4INtkLFYA6EKiL1VpvP8RNK2VxpMksQAebhMg+dX8txhjFQ=
=DLBZ
-----END PGP SIGNATURE-----
