-----BEGIN PGP SIGNATURE-----
Version: BCPG v@RELEASE_NAME@

iQIzBAABCAAdFiEEhcujMkppvaTgRM2ok0xsNh1FXJYFAmgS2b0ACgkQk0xsNh1F
XJZSqg//Z9yoYaZ9BQhin3A3W8K1pvwdDXGOSgg+x/qxFpFy0KJ98B9giS05KFci
a1E2+LVOOkZH9ezX8vA8VKjN0AYRR4r8fGhpGY55+o/JRTCGT3y6n9wlLwWJsK3k
V5yY+r3AGHyXBgppem8d3sonrUIfuCXuYbogbSDccNMNjiuNM+uZaBVPe254zuX6
pkXttvuChMt798rn/ziLCgAK9IkRzOXzLeuuwjxgIWQ/y6ocd/GJQXnAPCVfEqAb
ecxPM7a1wSXcfs0CPBBSdfO3exp1TohJVkg8yHAojmkAvJ9TTj97To1l+H+KvrDi
qqgOpTv7ZnHSfe1l6y+lXOL91ju2mA2eCDtS+ZNMtoDr3uWI4OwQOfurd0fLUV0Y
DgrMybQkuD1LDfkAqID624xwvxPe4Rw98jU6MUDisQ9f4XeQ3yuCMWGZtSFc8VBq
gJCgcL7qR7tvzHMCLymQ0ULAAlnzvAlOatB5GcMJlzC3Nx84NbF4z+FnNyFiKV7q
3fuqO5CqknydEk0SOR5B5Mr/TKbpILowaMCSy0TxHdIZ1jEw1NAJCJs5JnyuN07E
EmAp3ufBHEDO90Ta/rp6Qug0h9QES3edtY21kKSmdG9DreBbD8BirVgxKc2ozetp
a/J8iUD21ibax504GrB+CnCElm4zH8IoidXBKS3C8WCH/6rzJek=
=l+ZM
-----END PGP SIGNATURE-----
