-----BEGIN PGP SIGNATURE-----
Version: BCPG v1.68

iQIzBAABCAAdFiEEhcujMkppvaTgRM2ok0xsNh1FXJYFAmYZLvUACgkQk0xsNh1F
XJY0rQ//R8ZpZv8rSM9H/ZvIqVXJrO0zod0dnnf2c32cbLVb42/Es58thmFlAqwd
tgrUkPvuY/4kaMiguqKTkUfqwo3TBpNRnIxNy9zSzgbPr85nR4OeJlQGZuP0OVEW
J42c36MBipdIMsOTV40V5Z04mjlZnNjktUrUX8tkB1oc9s5YqmVvQVcoTQwbV/Lb
TTuMzMvCg3F8bWjeJIwh5zfNoM8pJ/yE49nuyM02PjmmSc8oIgqD5H8Zd+LcJdAs
SJYLaMBBAvZarm4ZnK9jkx6ZjUddhHhFE8RcFD3ll7JzUNyao2VZCpksYShqNLzo
NnGrqiciwA37PzRSfHc0y2l6W/BU38Om5c0cjcs4ZsYOaTAv5fkioZKI46kuhI3p
10y++aOCXTQYuKkADw/YxfkOxsUpVoj7UM5aYw9MD9h0WSOBUM3DTm2RImfgUp9E
AliWxPmCjD7s9XU74NGqJ8LTsEwbhkBnrDHxb8deZ6MYMicrrjqHO9UGTe8Kl2UX
1x23d9FsgUGL1xgtCBzWldAooGEG5k6B1ZYDb4ODLWbCs2MWqe2DUfGaGHrQl5jI
s7seYDZXqfJZlYc6Om9t93uE+JQjnYMSMUe58E4kT0fI4sxHPjreIkibwbu/CZTm
UdoSFh1AkFFPsB4aBkCs8Af7SfA5mZ4j9h6xRLCvVfQ9TCTg4gA=
=zkyL
-----END PGP SIGNATURE-----
