-----BEGIN PGP SIGNATURE-----
Version: BCPG v1.68

iQIzBAABCAAdFiEEhcujMkppvaTgRM2ok0xsNh1FXJYFAmYZLuIACgkQk0xsNh1F
XJaaOg//TOsGvCtuwqyg22U5gnB7KqvwcrDNRtxB6Ye6khkZnyaKJn0/gLXMY2ub
akNKNoJmH/wxyyiq7Sqr5cDFvVE+PUomPrPeJX/E3TqikjT7xWhS9OZnGu8+yClt
wrvjVQF6jxpmQyK7YbO6QXOD3Jrw5tmMyCBkk84ulqVidb2TvnkANspeah3xmeLF
tdzWxf2VIhIlLtulMzrodnKq/J9OTe/P7OwnS2DtNNWqtfjfyhi431WfaRa0Xfjn
2hu9KhqnCr9Zg0SkFWqJBX9vPrvVHvwGnxiPPF/rsjX4zt7nTF3EtXl+rZ2Dx0Ig
eEJqpiFOj3VFeAE+Xl6Z/rh1UzCUDV3ojetswes/MEgk3WZLs0ZTM0PZfpbfcrV+
C9+keV3Z9hPPFGEirJAPvbGtP4PjZ/9bJQ7dMfo3ryLHDNlzPwb/jm1yXgLGvQEh
5P0faqE9fAxJ0ICTireCe/dbEzpakZ14sDD8fff+tsageyaLoX38Q9N2Vsin1S++
ax1X5dXiPv6teEGudYeTwOPhOc24YjLz4k7fZlV2qN6GzB4UxRWCACsapl1gyXoH
wf6q4/IL6NAV2x+PBBBDpCwZcUekactzecGhIgj80JuDMkPtXtYLWHkZIfKdyQEZ
tgALkFp4luVMMyIP7J0e0xagDqfImOklfsTJEpGrUkhsRoyeOV4=
=JHet
-----END PGP SIGNATURE-----
