-----BEGIN PGP SIGNATURE-----
Version: BCPG v1.68

iQIzBAABCAAdFiEEhcujMkppvaTgRM2ok0xsNh1FXJYFAmZjrKwACgkQk0xsNh1F
XJbHgw/8CJ4864HSytfsyE/OMUVS8Uhu4Nxm84GVE/H7G/ggCJrGzxuPmmUKWQ+S
ay5UJtuh5EwGoWhQ1LdP/Q4K1AmWJ4MGss4PWJ82MTQJcCCbCizNX1Piv9lEr2J6
nluBBKtrtpWK61Ysaqn1NKKopfrm+wNPQsv/7+eyMrbfAgTv/iEqXR3iDvpzEOS5
cLLJwLE8wxujKRHLPuB1XedvB2/L4hDT7Y+UHNhfOdOzcK+r/d4Dc9MT0vfDovf+
6wTbIQjWcLcq8u+5gl3EaXE1I0tV0QHpPXK2slrWgjg1T3A/WB0t/1mixpyeOnBx
VoEk9lVAqDClkWsYtS+Ie5dKdrx/KcQXXRrtAv3VnN1tI7WBoduRcye2Bd4qeW31
yePe9ppGHgcWSNmbeSKRBG5IeXy9/8qt7OmbL0CCRjg3NYhGZkAZ4ueefYZ9KTIj
H6Yw0uXukteNvNJ21LXE4W87FtyxOiDN9zH2Lr2YLHSXL1OEQEbSpWHTZsDpc6Ys
TxcLgs/d188vYMEg25KtYIMt5BXPmUx006J7v7DhTid4UHu9dUlf9mF5DgnbvPXn
UcquQkkUFKpV7BbWzYTdb+xhQOOPWR9qjxtLE33FS77SNzguBSkoto8N5u6HYznm
0e5nlSH9qM/th2XUnO8taayMwF119BMdzD8/GDUa5Ar6j8lXDsY=
=s6MO
-----END PGP SIGNATURE-----
