-----BEGIN PGP SIGNATURE-----
Version: BCPG v@RELEASE_NAME@

iQIzBAABCAAdFiEEhcujMkppvaTgRM2ok0xsNh1FXJYFAmgPGZAACgkQk0xsNh1F
XJZXlhAAkMe9mlAL2nI4vRsHkLiwbhOB6InUtLrjrTmG3Bj7Ob4RkC2kUvCmNpqf
88syWUWz3xOEBPHcxvKY8Jj8+9E9BbDEbQivcYuu23BNOfw5SAfabXZ5PxpmXdBR
FlM8XKX7V9/07++SISpbPTitqW8gZmNHC7JcHdbw5aPqP7jz61Y3Z7t86V77UYFO
zZEVqvH7PCvYtVM6hAHEVfo8CmugjBJegPfiH0MWdl2miozmvOnJA+HrRH0gI6cU
90b357+3HlPfj6TUYz2U4dw3+RFym8Dx+8j5n8tOfB8Pv2imkWyIlhh+lMS6367l
HEEiEe+55tATYCrnjz90Apo1P6YWEp3e4ZHSdMH+ZmcckV29+7N4izYWCDPkxOVK
C22ey86uAG6SIi1ZRybyz1IeFVoAXRsBHZqBjpdqGt8yc2k/4lAzPyYroa4jYeku
U/qXWppL8r3ARvvZz97jPvPyLJmox6FqUuET+q6stQpg96TN+RROft4zPtmUYPQf
DUJ4UGeLIH9OjuqrhonxJDUROAWGM8zeP35E3IPs2ddrYRWML0mDGnFkhb7zvQub
nR92L8n/HuR2UfxRSzO8PfS0JljxOIhraKG32XORuZ74XNxXKswwOuFdCTmsOQTR
t7TBSc+dnsevuLeSQGH+vCbcAX8ZZcDuEdmmIFuWit2558u9nE0=
=0i++
-----END PGP SIGNATURE-----
