-----BEGIN PGP SIGNATURE-----
Version: BCPG v@RELEASE_NAME@

iQIzBAABCAAdFiEEhcujMkppvaTgRM2ok0xsNh1FXJYFAmfIZhQACgkQk0xsNh1F
XJbNcw/+JVlI5T+9bntEis3pPCibC7Lhq7OCZWOWSijPuD0D/Bc6WP6LMXoD8w/0
LRtZP2g1E8nn9a99izqQr8S1YSiKr1V0G4X9DW9TQPUKPLqTI4XEYUsTBNCuAnYL
pIcGFlS6L2VsfebAz1rNsbKT+jtwnIkFCHXIPrLcxa+0Qww3gbw17R6eoS6Cm6Y3
Cd5t0kiNc9LWcvJf8pjSuz9I5weFrvlzJEAkqZ3lPzTljchg34GW9zj0q/a7X6dm
wGLM+QUH3rhOdIwQH8lZoV4Xvy56qC2ZG1CAHhYGtFUY4ow4a5tZPsjhLYnKTIDB
Y3AXGAlIwjI8YLOvSh7770ElMo2Qt4I1YNEw9U7ZVHkvwsCx3QRxuO4c3Kdoq81u
6IPq1WqypOsVmlYIjvAvjrxKjSNc7t3huDgDJOd9wJSRMh7Fk+Jz+1XzjYPJjLcg
zi2WonbXkKK86eodSM4XOZMgWBidIRkP+AKSRaQ/V7Fxt3FIeoNAa/H3HMWd8PN6
KLdMhsxLAEM07avBqdgrBb9FYsWYp+oiJKVX1J7/khkhNDV0iY08Wn09UyZCbTTz
vpl2E6vry/Qles+jswm9+ULXWPCjnjxbscVBa52tyT3l3zPPgNMviy6uQSucDlhJ
XPmfgtkUfn0EIevPZRLhlyZUbPXCcCdW3wScRJFeiFU5SmNRhFY=
=bk2r
-----END PGP SIGNATURE-----
