-----BEGIN PGP SIGNATURE-----
Version: BCPG v@RELEASE_NAME@

iQIzBAABCAAdFiEEhcujMkppvaTgRM2ok0xsNh1FXJYFAmfIZhgACgkQk0xsNh1F
XJaNYg/9GUBzQ6e+PELeJVfDAJRCZtw7FjitR7wV94dxLdYPFNYHMtfJZgX3z875
X3N0BkWmSP3kg6TczmwaZIoj0u9l9JPlpWRUm0/jLDnsYRUtJC3jY5PHXh9ySDfW
sTi2aBmn/gal75X/dkmsCKfluGB1x7CvQxKK/ITbmRatke6B/fRZjs6BUDkceKbS
A3S9hTCY5J+IAPR4NCtCICP36rgoBr1xbawA295QW3BQVesDcv1fZYCIUlWpee4E
fHgEY37lFbUknKKkn7em2YEmX1HNCmPXoyc/Ovjrw4d4FfTNXFWf8MxPBDTHGdsa
N816T/BkP3hcYQ6W/e/qtKkFds1JYZBU8dj6+tqdccaCnzJ0RdqPbCvDOqhfRmZl
VhBC60swQbFIp5Wztvg/MWFb2vyTWUsKweBC9vfVDprd8HG1jTJ+9wWDYScDPyHS
txdFsr03uDDcfqTi0wWYQ8Y1hFuUNUmK0tvOIyEU/mKHe06Z6eIY/pmpETwDZPwh
WWSpS+2Mog0Klw8rsYpKgiYKapy9Y8FtRpT4GHlhvntbULfU50VXPmEu8NChxb0D
Jo9I5P0QPepugaSkeVzW5LL98IxNT5LG9ZWwFrtxkFoLLk8id8URhbrStAc1FDCm
guNi9e9zm3fU1XDqoVjk4TwrSKdBAyudiKu9aqiSJ/iakxuEzVg=
=9XVk
-----END PGP SIGNATURE-----
