-----BEGIN PGP SIGNATURE-----
Version: BCPG v@RELEASE_NAME@

iQIzBAABCAAdFiEEhcujMkppvaTgRM2ok0xsNh1FXJYFAmgS2a8ACgkQk0xsNh1F
XJYKPQ/9HUx3Jl4p3Rjhe7jG5ILCKQSPdXc3lmu8zBqbuoQXIn1f6wobKhCuEumX
eahQmXxi82s6hovyfEC5t6xycv0PUC6Yg2rvCoKXJBNwmkL9yfApE2Y23rVOSTbJ
JqyJnUF5qSBw5k8OkajzeDc/fE/2RgFfuDFwc7QXwvnDqzX+UZebdn3yvETLw3aX
mUxfHNNMoGcx7Q82IJdT1TpevSI6BAVI9xLpkj2Cn2VHvzSgVtA/rfDqo8n9CcF3
o4Z3V4AvvoSB3Qn0hIY3vIssu9zOhJGyODTJUkhI2RmUIPfBd0Rbqzx0W4gJoKoN
AZA76B5kb+oIfvO3wQEFMGmC5OZTcYDn6O7YXvAptANd/nE7qWgVPfPBxoAaOw/o
yl3b9b8b4/tVdClSi3CdCHXy6vxrkM3MoLa1vF3X7Tsr3IJOWAW0Y2nX9n9n2uCr
TWfC6TOSdBZ4luylIt09B7g1mwV1Pb/tg0VX9kGEOUq36++SqNAcO6lIj9TPtDjG
klt87M/j0CvsdjyHuTXPmeXSZEjMjW1hbtm0zS86MfiOmBp5MXKP6c3HqHLRdhPv
xsmFe+LR4TAIu9/tYIGLvrH1sIN7m7ca6BBmoMvHgf8moLF+CVfIH1E0DfjVt6GU
FUR9NNjhRE56nqyRTcqix+6NQ/6SIgJfqHSS+Dr+VXQZR5aZkT8=
=4FhX
-----END PGP SIGNATURE-----
