-----BEGIN PGP SIGNATURE-----
Version: BCPG v@RELEASE_NAME@

iQIzBAABCAAdFiEEhcujMkppvaTgRM2ok0xsNh1FXJYFAmfIl6QACgkQk0xsNh1F
XJZcKQ/+OFVCeTOHfnslX5YMsiBUHYPhjLMls614gBVT/K7euGZx8iUSgWT/MQvS
KCtypfr5DUKR9DjhLGbzrthEe4Z2lkQuRSLc4DLPjAGi5nvmC5qkLRiT7N/morDp
y0KgRVYNJBwf1GOSB1uwFwyK1IhlsEVRi8jetewXnBMbb1UjN+TGAOOH8nwS2Llz
YWVQUzv/w00r6mYaa9K6HmC4mW40YB1ptcnXHIb6pW3Hg5Zrl44dsu2Ki5a/bHph
iyY9LFpVbtNzAblPuoFv5NxHhXYj9X5hIa1IApLb3TpR2yT0kjWvrpSKEH6Ob9xW
K5ynKWvpTNYx2zZXAZHiUYwik/Zeq6mSxA4LQKpY9+Vf7ut4Bxkx1T5XUODsXwtd
3xX55kJ53qKxT0Az/rNiJPTKotQA+0Y4GHrARD0Fe6gY1JHEWoChEcQSd8yQhAzm
+VNguzUFjsC2/ie795n4RXpmOWYRmorLuJ2/SZYmDgzrcHxW4wjHy2xZohzkJYFv
0EdGiSdqtPTGjHLAla0hehKCnwfdStrqY7p6PrWP78gIM57Hw4dNMSE3H+iPLQuQ
Hw7rZG+3Ff3LqowJJNES0P/QN/8cK9AdazBX2RsTjlA0k1MsR7qog3nuZFTe7r2e
il7j+ie82aXeOHCeI23rSW4btbu3ypRNbkw81z3XO2QFjmxSlNI=
=zRUf
-----END PGP SIGNATURE-----
